src/assets/img/unsorted/parents.svg

<svg xmlns:xlink="http://www.w3.org/1999/xlink" height="20.15" width="20.95" xmlns="http://www.w3.org/2000/svg"><use height="20.15" width="20.95" xlink:href="#a"/><defs><linearGradient gradientTransform="matrix(.0064 0 0 .0123 5.2 -.05)" gradientUnits="userSpaceOnUse" id="b" spreadMethod="pad" x1="-819.2" x2="819.2"><stop offset="0" stop-color="#ffc2ea"/><stop offset="1" stop-color="#fff"/></linearGradient><linearGradient gradientTransform="matrix(.0019 -.0033 .0037 .0021 44.95 28.25)" gradientUnits="userSpaceOnUse" id="c" spreadMethod="pad" x1="-819.2" x2="819.2"><stop offset="0" stop-color="#6b1449"/><stop offset="1" stop-color="#af2076"/></linearGradient><g id="a" fill-rule="evenodd"><path d="M-10.5-6.5 0-10.1v20.15Q-3.65 7-5.9 3.85-8.4.25-10.5-6.5" fill="#fff" transform="translate(10.5 10.1)"/><path d="m0-10.1 10.45 3.6q-2 6.75-4.6 10.35Q3.9 6.8 0 10.05V-10.1" fill="url(#b)" transform="translate(10.5 10.1)"/><path d="m-4.55 1.8-.05-.05 2-2q-.55-1-.55-2.2 0-1.95 1.4-3.3 1.35-1.4 3.3-1.4 1.9 0 3.3 1.4Q6.2-4.4 6.2-2.45q0 1.9-1.35 3.3-1.4 1.35-3.3 1.35l-1.9-.35-1.7 1.7-.4.45-2.15-.05q-1.05-1.05 0-2.15h.05M1.55.4Q4.4.4 4.4-2.45T1.55-5.3q-2.85 0-2.85 2.85T1.55.4" fill="url(#c)" transform="translate(10.5 10.1)"/></g></defs></svg>

<?xml version="1.0" encoding="UTF-8" standalone="no"?>
<svg xmlns:xlink="http://www.w3.org/1999/xlink" height="20.15px" width="20.95px" xmlns="http://www.w3.org/2000/svg">
  <g transform="matrix(1.0, 0.0, 0.0, 1.0, 10.5, 10.1)">
    <use height="20.15" transform="matrix(1.0, 0.0, 0.0, 1.0, -10.5, -10.1)" width="20.95" xlink:href="#shape0"/>
  </g>
  <defs>
    <g id="shape0" transform="matrix(1.0, 0.0, 0.0, 1.0, 10.5, 10.1)">
      <path d="M-10.5 -6.5 L0.0 -10.1 0.0 10.05 Q-3.65 7.0 -5.9 3.85 -8.4 0.25 -10.5 -6.5" fill="#ffffff" fill-rule="evenodd" stroke="none"/>
      <path d="M0.0 -10.1 L10.45 -6.5 Q8.45 0.25 5.85 3.85 3.9 6.8 0.0 10.05 L0.0 -10.1" fill="url(#gradient0)" fill-rule="evenodd" stroke="none"/>
      <path d="M-4.55 1.8 L-4.6 1.75 -2.6 -0.25 Q-3.15 -1.25 -3.15 -2.45 -3.15 -4.4 -1.75 -5.75 -0.4 -7.15 1.55 -7.15 3.45 -7.15 4.85 -5.75 6.2 -4.4 6.2 -2.45 6.2 -0.55 4.85 0.85 3.45 2.2 1.55 2.2 L-0.35 1.85 -2.05 3.55 -2.45 4.0 -4.6 3.95 Q-5.65 2.9 -4.6 1.8 L-4.55 1.8 M1.55 0.4 Q4.4 0.4 4.4 -2.45 4.4 -5.3 1.55 -5.3 -1.3 -5.3 -1.3 -2.45 -1.3 0.4 1.55 0.4" fill="url(#gradient1)" fill-rule="evenodd" stroke="none"/>
    </g>
    <linearGradient gradientTransform="matrix(0.0064, 0.0, 0.0, 0.0123, 5.2, -0.05)" gradientUnits="userSpaceOnUse" id="gradient0" spreadMethod="pad" x1="-819.2" x2="819.2">
      <stop offset="0.0" stop-color="#ffc2ea"/>
      <stop offset="1.0" stop-color="#ffffff"/>
    </linearGradient>
    <linearGradient gradientTransform="matrix(0.0019, -0.0033, 0.0037, 0.0021, 44.95, 28.25)" gradientUnits="userSpaceOnUse" id="gradient1" spreadMethod="pad" x1="-819.2" x2="819.2">
      <stop offset="0.0" stop-color="#6b1449"/>
      <stop offset="1.0" stop-color="#af2076"/>
    </linearGradient>
  </defs>
</svg>
